icons/desktop/20/extension-20.svg

<svg width="20" height="20" viewBox="0 0 20 20" fill="none" xmlns="http://www.w3.org/2000/svg">
<path fill-rule="evenodd" clip-rule="evenodd" d="M9.87598 1.00098C11.67 1.00098 13.126 2.45549 13.126 4.25098V5.13867C13.7189 5.17972 14.3357 5.22867 14.9727 5.29883C16.5576 5.47322 17.749 6.82539 17.749 8.40918V16.334C17.749 17.8908 16.6025 19.2399 15.0322 19.4336C13.4843 19.6245 11.7553 19.751 9.875 19.751C8.36256 19.751 6.63073 19.6694 4.72852 19.4355C3.15953 19.2426 1.99764 17.8952 1.99902 16.3301L2.00098 14.5332L2.00684 14.4316C2.01865 14.3313 2.04835 14.2334 2.09375 14.1426L2.09473 14.1406C2.24296 13.8443 2.54561 13.6573 2.87695 13.6572H4.67285C5.40604 13.6572 6.0009 13.0623 6.00098 12.3281C6.00098 11.5941 5.40534 10.999 4.67285 10.999H2.87695C2.39414 10.999 2.00252 10.6078 2.00195 10.125L2 8.39258C1.99869 6.80641 3.18026 5.47795 4.75 5.28516C5.34861 5.21159 5.97479 5.14891 6.62598 5.09863V4.25098C6.62598 2.45574 8.08075 1.001 9.87598 1.00098ZM9.87598 2.75098C9.04725 2.751 8.37598 3.42224 8.37598 4.25098V5.91602C8.37596 6.37993 8.01395 6.76367 7.55078 6.79004C6.86796 6.82891 6.21134 6.8838 5.58301 6.95117L4.96387 7.02246C4.3114 7.10251 3.81487 7.62228 3.75586 8.26172L3.75 8.3916L3.75098 9.24902H4.67285C6.37236 9.24902 7.75098 10.6281 7.75098 12.3281C7.7509 14.0278 6.37357 15.4072 4.67285 15.4072H3.75L3.74902 16.332C3.74855 17.0287 4.26671 17.615 4.94141 17.6982C6.76507 17.9224 8.42552 18.001 9.875 18.001C11.6767 18.001 13.3343 17.8794 14.8184 17.6963C15.4858 17.6137 15.999 17.033 15.999 16.334V8.40918C15.999 7.75083 15.5327 7.18852 14.9082 7.05859L14.7813 7.03906C13.8854 6.94039 13.0247 6.87862 12.2002 6.83105C11.7375 6.80412 11.376 6.42151 11.376 5.95801V4.25098C11.376 3.42247 10.704 2.75098 9.87598 2.75098Z" fill="black"/>
</svg>

<!-- This Source Code Form is subject to the terms of the Mozilla Public
   - License, v. 2.0. If a copy of the MPL was not distributed with this
   - file, You can obtain one at http://mozilla.org/MPL/2.0/. -->
<svg xmlns="http://www.w3.org/2000/svg" width="20" height="20" fill="context-fill" fill-opacity="context-fill-opacity" viewBox="0 0 20 20">
    <path fill-rule="evenodd" d="M9.876 1.001a3.25 3.25 0 0 1 3.25 3.25v.888c.593.04 1.21.09 1.847.16a3.13 3.13 0 0 1 2.776 3.11v7.925c0 1.557-1.146 2.906-2.717 3.1a42.1 42.1 0 0 1-10.303.002 3.123 3.123 0 0 1-2.73-3.106l.002-1.797.006-.101a.9.9 0 0 1 .087-.29v-.001a.88.88 0 0 1 .783-.484h1.796a1.329 1.329 0 0 0 0-2.658H2.877a.875.875 0 0 1-.875-.874L2 8.393a3.127 3.127 0 0 1 2.75-3.108A42 42 0 0 1 6.626 5.1V4.25a3.25 3.25 0 0 1 3.25-3.25m0 1.75a1.5 1.5 0 0 0-1.5 1.5v1.665a.875.875 0 0 1-.825.874q-1.025.06-1.968.161l-.62.071c-.652.08-1.148.6-1.207 1.24l-.006.13.001.857h.922a3.08 3.08 0 0 1 0 6.158H3.75l-.001.925c0 .697.518 1.283 1.192 1.366a40.4 40.4 0 0 0 9.877-.002A1.363 1.363 0 0 0 16 16.334V8.409c0-.658-.466-1.22-1.09-1.35l-.128-.02a49 49 0 0 0-2.58-.208.875.875 0 0 1-.825-.873V4.251a1.5 1.5 0 0 0-1.5-1.5" clip-rule="evenodd" />
</svg>
